ui/public/images/logo_sirius.svg

<?xml version="1.0" encoding="UTF-8"?>
<svg viewBox="0 0 31 38" xmlns="http://www.w3.org/2000/svg">
<path d="m15.692 15.498c2.6324 0.2889 4.8656 0.7732 6.6998 1.4529 1.8342 0.6798 3.3202 1.4955 4.458 2.4471 1.1549 0.9346 1.9871 1.9797 2.4966 3.1353 0.5264 1.1386 0.7897 2.3281 0.7897 3.5686 0 1.4275-0.2293 2.685-0.6879 3.7726-0.4585 1.0876-1.0699 2.0477-1.8341 2.8804-0.7473 0.8157-1.6134 1.5039-2.5984 2.0647-0.968 0.5608-1.97 1.0111-3.006 1.351-1.019 0.3569-2.0295 0.6118-3.0315 0.7647-1.002 0.1699-1.9021 0.2634-2.7003 0.2804h-0.6368c-0.8492-0.017-1.8257-0.0935-2.9296-0.2294-1.0869-0.119-2.2078-0.3144-3.3626-0.5863-1.1379-0.2719-2.2587-0.6203-3.3626-1.0451-1.1039-0.4418-2.0889-0.9856-2.955-1.6314-0.86614-0.6457-1.5624-1.4104-2.0889-2.2941s-0.78971-1.9118-0.78971-3.0843c0-0.6288 0.1019-1.1811 0.30569-1.6569 0.2038-0.4758 0.48402-0.8752 0.84066-1.198 0.35664-0.3399 0.76424-0.6033 1.2228-0.7902 0.47552-0.187 0.98501-0.2974 1.5285-0.3314 0.66234 0 1.2737 0.1444 1.8342 0.4333 0.57742 0.2719 1.0784 0.6628 1.503 1.1726 0.42458 0.4928 0.76424 1.0961 1.019 1.8098 0.27173 0.6967 0.42458 1.4784 0.45854 2.3451 0.03397 0.6967 0.19531 1.4105 0.48402 2.1412s0.71325 1.3934 1.2738 1.9882c0.5604 0.5948 1.2567 1.0791 2.0889 1.453 0.8322 0.3738 1.8087 0.5608 2.9296 0.5608 0.8831 0 1.6813-0.1785 2.3946-0.5353 0.7302-0.3569 1.3501-0.8327 1.8596-1.4275s0.9001-1.283 1.1718-2.0647c0.2718-0.7987 0.4076-1.6314 0.4076-2.4981 0-0.7817-0.1358-1.5549-0.4076-2.3196-0.2717-0.7647-0.6963-1.4444-1.2737-2.0392-0.5774-0.6118-1.3162-1.1131-2.2163-1.5039-0.9001-0.3909-1.9785-0.6118-3.2352-0.6628-2.5645-0.1189-4.7553-0.5013-6.5725-1.147-1.8002-0.6458-3.2777-1.4785-4.4326-2.4981-1.1548-1.0366-2.004-2.2176-2.5474-3.5431-0.52647-1.3255-0.78971-2.719-0.78971-4.1804 0-1.5804 0.23776-2.9654 0.71329-4.1549 0.47552-1.2065 1.1039-2.2431 1.8851-3.1098 0.7982-0.88366 1.7068-1.6144 2.7258-2.1922 1.019-0.59478 2.0719-1.0706 3.1588-1.4275 1.1039-0.35686 2.1908-0.60327 3.2608-0.73922 1.0869-0.15294 2.0889-0.22941 3.006-0.22941h0.3056c0.8492 0.016994 1.7918 0.093464 2.8277 0.22941 1.053 0.11896 2.1144 0.31438 3.1843 0.58628 1.0869 0.27189 2.1314 0.62876 3.1334 1.0706 1.019 0.44183 1.9191 0.98562 2.7003 1.6314 0.7982 0.64575 1.4351 1.4105 1.9106 2.2941 0.4755 0.86667 0.7133 1.8693 0.7133 3.0078 0 0.66275-0.1104 1.2406-0.3312 1.7334s-0.518 0.9091-0.8916 1.249c-0.3566 0.3229-0.7812 0.5693-1.2737 0.7392s-1.002 0.2549-1.5285 0.2549c-0.6454 0-1.2483-0.1444-1.8087-0.4333s-1.0529-0.6883-1.4775-1.1981c-0.4076-0.5098-0.7388-1.113-0.9935-1.8098-0.2378-0.71373-0.3567-1.4954-0.3567-2.3451 0-0.73072-0.0934-1.4529-0.2802-2.1667s-0.5095-1.351-0.968-1.9118c-0.4416-0.57778-1.036-1.0451-1.7832-1.402-0.7473-0.35687-1.6729-0.55229-2.7768-0.58628h-0.2547c-0.8322 0.033987-1.6049 0.28039-2.3182 0.73922-0.6963 0.44183-1.2992 1.0281-1.8087 1.7588-0.5095 0.73072-0.90857 1.5549-1.1973 2.4726-0.27173 0.90066-0.40759 1.8183-0.40759 2.753 0 0.81569 0.11888 1.6059 0.35664 2.3706 0.25475 0.7647 0.64533 1.4614 1.1718 2.0902 0.5435 0.6118 1.2313 1.1301 2.0634 1.5549 0.8322 0.4248 1.8427 0.6967 3.0315 0.8157z" fill="#5222D0"/>
<circle cx="25.356" cy="9.579" r="3.9443" fill="#EC615B"/>
</svg>

<svg width="31" height="38" viewBox="0 0 31 38" fill="none" xmlns="http://www.w3.org/2000/svg">
  <path d="M15.6923 15.4981C18.3247 15.787 20.5579 16.2713 22.3921 16.951C24.2263 17.6308 25.7123 18.4465 26.8501 19.3981C28.005 20.3327 28.8372 21.3778 29.3467 22.5334C29.8731 23.672 30.1364 24.8615 30.1364 26.102C30.1364 27.5295 29.9071 28.787 29.4485 29.8746C28.99 30.9622 28.3786 31.9223 27.6144 32.755C26.8671 33.5707 26.001 34.2589 25.016 34.8197C24.048 35.3805 23.046 35.8308 22.01 36.1707C20.991 36.5276 19.9805 36.7825 18.9785 36.9354C17.9765 37.1053 17.0764 37.1988 16.2782 37.2158H15.6414C14.7922 37.1988 13.8157 37.1223 12.7118 36.9864C11.6249 36.8674 10.504 36.672 9.34915 36.4001C8.21129 36.1282 7.09041 35.7798 5.98651 35.355C4.88262 34.9132 3.8976 34.3694 3.03147 33.7236C2.16533 33.0779 1.46903 32.3132 0.942557 31.4295C0.416084 30.5458 0.152847 29.5177 0.152847 28.3452C0.152847 27.7164 0.254745 27.1641 0.458541 26.6883C0.662338 26.2125 0.942557 25.8131 1.2992 25.4903C1.65584 25.1504 2.06344 24.887 2.52198 24.7001C2.9975 24.5131 3.50699 24.4027 4.05045 24.3687C4.71279 24.3687 5.32418 24.5131 5.88462 24.802C6.46204 25.0739 6.96304 25.4648 7.38761 25.9746C7.81219 26.4674 8.15185 27.0707 8.40659 27.7844C8.67832 28.4811 8.83117 29.2628 8.86513 30.1295C8.8991 30.8262 9.06044 31.54 9.34915 32.2707C9.63786 33.0014 10.0624 33.6641 10.6229 34.2589C11.1833 34.8537 11.8796 35.338 12.7118 35.7119C13.544 36.0857 14.5205 36.2727 15.6414 36.2727C16.5245 36.2727 17.3227 36.0942 18.036 35.7374C18.7662 35.3805 19.3861 34.9047 19.8956 34.3099C20.4051 33.7151 20.7957 33.0269 21.0674 32.2452C21.3392 31.4465 21.475 30.6138 21.475 29.7471C21.475 28.9654 21.3392 28.1922 21.0674 27.4275C20.7957 26.6628 20.3711 25.9831 19.7937 25.3883C19.2163 24.7765 18.4775 24.2752 17.5774 23.8844C16.6773 23.4935 15.5989 23.2726 14.3422 23.2216C11.7777 23.1027 9.58691 22.7203 7.76973 22.0746C5.96953 21.4288 4.49201 20.5961 3.33716 19.5765C2.18232 18.5399 1.33317 17.3589 0.78971 16.0334C0.263237 14.7079 0 13.3144 0 11.853C0 10.2726 0.237762 8.88761 0.713287 7.69806C1.18881 6.49152 1.81718 5.45492 2.5984 4.58825C3.3966 3.70459 4.30519 2.97386 5.32418 2.39609C6.34316 1.80131 7.3961 1.32549 8.48302 0.96863C9.58691 0.611766 10.6738 0.36536 11.7438 0.229412C12.8307 0.0764708 13.8327 0 14.7498 0H15.0554C15.9046 0.0169935 16.8472 0.0934643 17.8831 0.229412C18.9361 0.348367 19.9975 0.543792 21.0674 0.815688C22.1543 1.08758 23.1988 1.44445 24.2008 1.88628C25.2198 2.32811 26.1199 2.8719 26.9011 3.51766C27.6993 4.16341 28.3362 4.92812 28.8117 5.81178C29.2872 6.67845 29.525 7.68107 29.525 8.81963C29.525 9.48238 29.4146 10.0602 29.1938 10.553C28.973 11.0458 28.6758 11.4621 28.3022 11.802C27.9456 12.1249 27.521 12.3713 27.0285 12.5412C26.536 12.7111 26.0265 12.7961 25.5 12.7961C24.8546 12.7961 24.2517 12.6517 23.6913 12.3628C23.1309 12.0739 22.6384 11.6745 22.2138 11.1647C21.8062 10.6549 21.475 10.0517 21.2203 9.35493C20.9825 8.6412 20.8636 7.8595 20.8636 7.00982C20.8636 6.2791 20.7702 5.55688 20.5834 4.84315C20.3966 4.12942 20.0739 3.49217 19.6154 2.93138C19.1738 2.3536 18.5794 1.88628 17.8322 1.52942C17.0849 1.17255 16.1593 0.977127 15.0554 0.94314H14.8007C13.9685 0.977127 13.1958 1.22353 12.4825 1.68236C11.7862 2.12419 11.1833 2.71046 10.6738 3.44119C10.1643 4.17191 9.76523 4.99609 9.47652 5.91374C9.20479 6.8144 9.06893 7.73205 9.06893 8.66669C9.06893 9.48238 9.18781 10.2726 9.42557 11.0373C9.68032 11.802 10.0709 12.4987 10.5974 13.1275C11.1409 13.7393 11.8287 14.2576 12.6608 14.6824C13.493 15.1072 14.5035 15.3791 15.6923 15.4981Z" fill="#5222D0"/>
  <circle cx="25.3558" cy="9.57904" r="3.94427" fill="#EC615B"/>
</svg>
